X:1
T:O Jesus, Lord and Savior
T:O Jesus, Lord and Savior
T:Frank Sewall
T:Jonathan Bayley, 1876
T:Public Domain Courtesy of the Cyber Hymnal™
C:Frank Sewall
Z:Public Domain
Z:Courtesy of the Cyber Hymnal™
%%score ( 1 2 ) ( 3 4 )
L:1/8
Q:1/4=115
M:4/4
K:Eb
V:1 treble 
V:2 treble 
V:3 bass 
V:4 bass 
V:1
 [EG]2 | [EG]2 [EG]2 [EA]2 F2 | [GB]4 [GB]2 [EG]2 | [EG]2 [EG]2 [EA]2 [Ec]2 | [EB]6 [FB]2 | %5
w: 1.~O|Je- sus, Lord and|Sav- ior, The|soul’s e- ter- nal|King, Grant|
w: 2.~Far,|far from Thee, our|Sav- ior, Our|youth- ful steps might|roam, By|
w: 3.~With-|in Thy Church, Lord|Je- sus, O|let our souls as-|pire, To|
w: 4.~A-|bide with us, Lord|Je- sus, Fill|us with ho- ly|zeal; Give|
 [E=A]2 [EG]2 [EF]2 [FB]2 | (=A2 G2) [EF]2 [Dd]2 | [Gc]2 G2 [FB]2 [=Ac]2 | B6 z2 || %9
w: now Thy grace and|fa- * vor, While|we Thy prais- es|sing!|
w: sin and dark- ness|sink~in * death, Nor|reach our heav’n- ly|home.|
w: see Thy Spir- it’s|holy * light And|feel ce- les- tial|fire!|
w: us to think as|angels * think, And|feel as an- gels|feel.|
"^Refrain" [GB]4 [FA]3 [EG] | [EG]6 [EB]2 | [Ec]2 [Ee]2 [Ed]2 [Ec]2 | [EB]6 [GB]2 | %13
w: ||||
w: Come, Sav- ior,|come, And|give Thy Spir- it|course, O|
w: ||||
w: ||||
 [FB]2 [DA]2 [EA]2 [FA]2 | [B,A]2 [EG]2 [EG]2 [EG]2 | [EG]4 (B2 A2) | [EG]4 [DF]4 | E6 |] %18
w: |||||
w: feed us now and|ev- er- more, From|love’s e- *|ter- nal|source!|
w: |||||
w: |||||
V:2
 x2 | x6 F2 | x8 | x8 | x8 | x8 | E4 x4 | x2 G2 x4 | B6 x2 || x8 | x8 | x8 | x8 | x8 | x8 | x4 E4 | %16
 x8 | E6 |] %18
V:3
 [E,B,]2 | [E,B,]2 [E,B,]2 [E,C]2 [E,D]2 | [E,E]4 [E,B,]2 [E,B,]2 | %3
 [E,B,]2 [E,B,]2 [E,C]2 [E,A,]2 | [E,G,]6 [B,,D]2 | [F,C]2 [F,B,]2 [F,=A,]2 [F,D]2 | %6
 [F,C]2 [F,B,]2 [F,=A,]2 [B,,B,]2 | [=E,C]2 [E,^C]2 [F,D]2 [F,=E]2 | [B,,D]6 z2 || %9
 [E,B,]4 [B,,B,]3 [E,B,] | [E,B,]6 [C,G,]2 | [A,,A,]2 C2 [C,B,]2 [D,A,]2 | [E,G,]6 [E,B,]2 | %13
 [D,B,]2 [B,,B,]2 [C,B,]2 [D,B,]2 | [E,B,]2 [E,B,]2 [E,B,]2 [E,_D]2 | [A,,_D]4 (D2 C2) | %16
 [B,,B,]4 [B,,A,]4 | [E,G,]6 |] %18
V:4
 x2 | x8 | x8 | x8 | x8 | x8 | x8 | x8 | x8 || x8 | x8 | x2 (A,,B,,) x4 | x8 | x8 | x8 | x4 A,,4 | %16
 x8 | x6 |] %18

